icon-themes/breeze_svg/cmd/sc_defineprintarea.svg

<svg viewBox="0 0 16 16" xmlns="http://www.w3.org/2000/svg">/&gt;<path d="m3 2v1 10 1h3v-1h-2v-10h2 1 2 2 1v3h1v-4h-1-3-2-1zm5 5v2h-1v5h2v1h4v-1h2v-5h-1v-2zm1 1h4v1h-4zm-1 2h6v3h-6zm3 1v1h2v-1z" fill="#4d4d4d"/></svg>

<svg xmlns="http://www.w3.org/2000/svg" viewBox="0 0 16 16">
     />
 <path 
     style="fill:#4d4d4d" 
     d="M 3 2 L 3 3 L 3 13 L 3 14 L 6 14 L 6 13 L 4 13 L 4 3 L 6 3 L 7 3 L 9 3 L 11 3 L 12 3 L 12 6 L 13 6 L 13 2 L 12 2 L 9 2 L 7 2 L 6 2 L 3 2 z M 8 7 L 8 9 L 7 9 L 7 14 L 9 14 L 9 15 L 13 15 L 13 14 L 15 14 L 15 9 L 14 9 L 14 7 L 8 7 z M 9 8 L 13 8 L 13 9 L 9 9 L 9 8 z M 8 10 L 14 10 L 14 13 L 8 13 L 8 10 z M 11 11 L 11 12 L 13 12 L 13 11 L 11 11 z "
     />
 </svg>
